svgs/duotone/square-virus.svg

<svg xmlns="http://www.w3.org/2000/svg" viewBox="0 0 448 512"><!--! Font Awesome Pro 6.4.0 by @fontawesome - https://fontawesome.com License - https://fontawesome.com/license (Commercial License) Copyright 2023 Fonticons, Inc. --><defs><style>.fa-secondary{opacity:.4}</style></defs><path class="fa-primary" d="M247.8 117.7c0-13.3-10.7-24-24-24s-24 10.7-24 24c0 29.3-35.4 43.9-56.1 23.2c-9.4-9.4-24.6-9.4-33.9 0s-9.4 24.6 0 33.9c20.7 20.7 6 56.1-23.2 56.1c-13.3 0-24 10.7-24 24s10.7 24 24 24c29.3 0 43.9 35.4 23.2 56.1c-9.4 9.4-9.4 24.6 0 33.9s24.6 9.4 33.9 0c20.7-20.7 56.1-6 56.1 23.2c0 13.3 10.7 24 24 24s24-10.7 24-24c0-29.3 35.4-43.9 56.1-23.2c9.4 9.4 24.6 9.4 33.9 0s9.4-24.6 0-33.9c-20.7-20.7-6-56.1 23.2-56.1c13.3 0 24-10.7 24-24s-10.7-24-24-24c-29.3 0-43.9-35.4-23.2-56.1c9.4-9.4 9.4-24.6 0-33.9s-24.6-9.4-33.9 0c-20.7 20.7-56.1 6-56.1-23.2zM160 224a32 32 0 1 1 64 0 32 32 0 1 1 -64 0zm96 40a24 24 0 1 1 0 48 24 24 0 1 1 0-48z"/><path class="fa-secondary" d="M64 32C28.7 32 0 60.7 0 96V416c0 35.3 28.7 64 64 64H384c35.3 0 64-28.7 64-64V96c0-35.3-28.7-64-64-64H64zM223.8 93.7c13.3 0 24 10.7 24 24c0 29.3 35.4 43.9 56.1 23.2c9.4-9.4 24.6-9.4 33.9 0s9.4 24.6 0 33.9c-20.7 20.7-6 56.1 23.2 56.1c13.3 0 24 10.7 24 24s-10.7 24-24 24c-29.3 0-43.9 35.4-23.2 56.1c9.4 9.4 9.4 24.6 0 33.9s-24.6 9.4-33.9 0c-20.7-20.7-56.1-6-56.1 23.2c0 13.3-10.7 24-24 24s-24-10.7-24-24c0-29.3-35.4-43.9-56.1-23.2c-9.4 9.4-24.6 9.4-33.9 0s-9.4-24.6 0-33.9c20.7-20.7 6-56.1-23.2-56.1c-13.3 0-24-10.7-24-24s10.7-24 24-24c29.3 0 43.9-35.4 23.2-56.1c-9.4-9.4-9.4-24.6 0-33.9s24.6-9.4 33.9 0c20.7 20.7 56.1 6 56.1-23.2c0-13.3 10.7-24 24-24z"/></svg>

<svg xmlns="http://www.w3.org/2000/svg" viewBox="0 0 448 512"><!--! Font Awesome Pro 6.3.0 by @fontawesome - https://fontawesome.com License - https://fontawesome.com/license (Commercial License) Copyright 2023 Fonticons, Inc. --><defs><style>.fa-secondary{opacity:.4}</style></defs><path class="fa-primary" d="M303.9 140.9C313.3 131.5 328.5 131.5 337.8 140.9C347.2 150.2 347.2 165.4 337.8 174.8C317.2 195.5 331.8 230.9 361.1 230.9C374.3 230.9 385.1 241.6 385.1 254.9C385.1 268.1 374.3 278.9 361.1 278.9C331.8 278.9 317.2 314.3 337.8 334.9C347.2 344.3 347.2 359.5 337.8 368.9C328.5 378.3 313.3 378.3 303.9 368.9C283.2 348.2 247.8 362.8 247.8 392.1C247.8 405.4 237.1 416.1 223.8 416.1C210.6 416.1 199.8 405.4 199.8 392.1C199.8 362.8 164.5 348.2 143.8 368.9C134.4 378.3 119.2 378.3 109.8 368.9C100.5 359.5 100.5 344.3 109.8 334.9C130.5 314.3 115.9 278.9 86.61 278.9C73.35 278.9 62.61 268.1 62.61 254.9C62.61 241.6 73.35 230.9 86.61 230.9C115.9 230.9 130.5 195.5 109.8 174.8C100.5 165.4 100.5 150.2 109.8 140.9C119.2 131.5 134.4 131.5 143.8 140.9C164.5 161.6 199.8 146.9 199.8 117.6C199.8 104.4 210.6 93.65 223.8 93.65C237.1 93.65 247.8 104.4 247.8 117.6C247.8 146.9 283.2 161.6 303.9 140.9H303.9zM191.1 191.1C174.3 191.1 159.1 206.3 159.1 223.1C159.1 241.7 174.3 255.1 191.1 255.1C209.7 255.1 223.1 241.7 223.1 223.1C223.1 206.3 209.7 191.1 191.1 191.1zM256 311.1C269.3 311.1 280 301.3 280 287.1C280 274.7 269.3 263.1 256 263.1C242.7 263.1 232 274.7 232 287.1C232 301.3 242.7 311.1 256 311.1z"/><path class="fa-secondary" d="M384 32C419.3 32 448 60.65 448 96V416C448 451.3 419.3 480 384 480H64C28.65 480 0 451.3 0 416V96C0 60.65 28.65 32 64 32H384zM199.8 117.7C199.8 146.9 164.5 161.6 143.8 140.9C134.4 131.5 119.2 131.5 109.8 140.9C100.5 150.2 100.5 165.4 109.8 174.8C130.5 195.5 115.9 230.9 86.61 230.9C73.35 230.9 62.61 241.6 62.61 254.9C62.61 268.1 73.35 278.9 86.61 278.9C115.9 278.9 130.5 314.3 109.8 334.9C100.5 344.3 100.5 359.5 109.8 368.9C119.2 378.3 134.4 378.3 143.8 368.9C164.5 348.2 199.8 362.9 199.8 392.1C199.8 405.4 210.6 416.1 223.8 416.1C237.1 416.1 247.8 405.4 247.8 392.1C247.8 362.9 283.2 348.2 303.9 368.9C313.3 378.3 328.5 378.3 337.8 368.9C347.2 359.5 347.2 344.3 337.8 334.9C317.2 314.3 331.8 278.9 361.1 278.9C374.3 278.9 385.1 268.1 385.1 254.9C385.1 241.6 374.3 230.9 361.1 230.9C331.8 230.9 317.2 195.5 337.8 174.8C347.2 165.4 347.2 150.2 337.8 140.9C328.5 131.5 313.3 131.5 303.9 140.9C283.2 161.6 247.8 146.9 247.8 117.7C247.8 104.4 237.1 93.65 223.8 93.65C210.6 93.65 199.8 104.4 199.8 117.7H199.8z"/></svg>
